images/icon-behance-white.svg

<svg viewBox="0 0 300 300" xmlns="http://www.w3.org/2000/svg"><circle cx="150" cy="150" fill="#fff" r="150"/><path d="m130.72 143.3s18.93-1.41 18.93-23.6-15.48-33-35.1-33h-64.55v124h64.54s39.4 1.24 39.4-36.61c0 0 1.72-30.8-23.23-30.8zm-20.82-34.59h4.65s8.77 0 8.77 12.91-5.16 14.77-11 14.77h-33.88v-27.68zm2.82 79.94h-34.28v-33.14h36.1s13.08-.17 13.08 17c0 14.51-9.77 16-14.9 16.11zm93.77-70.43c-47.7 0-47.66 47.66-47.66 47.66s-3.27 47.41 47.66 47.41c0 0 42.44 2.42 42.44-33h-21.82s.73 13.33-19.89 13.33c0 0-21.83 1.46-21.83-21.58h64.27s7-53.84-43.17-53.84zm-21.34 37.28s2.67-19.12 21.83-19.12 18.92 19.12 18.92 19.12zm45.85-46.25h-51.19v-15.25h51.19v15.27z"/></svg>

<?xml version="1.0" encoding="utf-8"?>
<!-- Generator: Adobe Illustrator 23.0.1, SVG Export Plug-In . SVG Version: 6.00 Build 0)  -->
<svg version="1.1" id="Layer_1" xmlns="http://www.w3.org/2000/svg" xmlns:xlink="http://www.w3.org/1999/xlink" x="0px" y="0px"
	 viewBox="0 0 300 300" style="enable-background:new 0 0 300 300;" xml:space="preserve">
<style type="text/css">
	.st0{fill:#FFFFFF;}
</style>
<path class="st0" d="M130.7,143.3c0,0,18.9-1.4,18.9-23.6s-15.5-33-35.1-33H50v124h64.5c0,0,39.4,1.2,39.4-36.6
	C153.9,174.1,155.7,143.3,130.7,143.3L130.7,143.3z M109.9,108.7h4.7c0,0,8.8,0,8.8,12.9s-5.2,14.8-11,14.8H78.4v-27.7L109.9,108.7z
	 M112.7,188.7H78.4v-33.1h36.1c0,0,13.1-0.2,13.1,17C127.6,187,117.9,188.5,112.7,188.7L112.7,188.7z M206.5,118.2
	c-47.7,0-47.7,47.7-47.7,47.7s-3.3,47.4,47.7,47.4c0,0,42.4,2.4,42.4-33h-21.8c0,0,0.7,13.3-19.9,13.3c0,0-21.8,1.5-21.8-21.6h64.3
	C249.7,172,256.7,118.2,206.5,118.2L206.5,118.2z M185.1,155.5c0,0,2.7-19.1,21.8-19.1s18.9,19.1,18.9,19.1H185.1z M231,109.2h-51.2
	V94H231V109.2L231,109.2z"/>
</svg>
